X: 1009
T: Her Ne Dem Sîne-keman
C: Ahmet Avni Konuk
O: Turkey
F: http://compmusic.upf.edu/node/140
N: sazkar--kupe--devrirevanihindi--her_ne--ahmet_avni_konuk
N: makam= sazkar
N: form= kupe
N: usul= devrirevanihindi = 14/8
M: 14/8
L: 1/16
K: C _1/4B ^f  
Q: 1/4=102
%%MIDI tuningsystem comma53
G4 ^A2B6 z2B2 A2B2 c/B/c/d/cB B2z2  | \
w:  Her  ne  dem  sî  | 
e2d2 e2d2 c2{d}c2 _2/4B2B2 c2BA A4 z4  | 
w:  ne *  ke man  *  *  *  *  i  | 
G4 A2_2/4B2 ABdc BAG4A2 B2c2 d2cB  | \
w:  le  o  meh  *  *  *  *  *  *  Saz  | 
=f2e2 d2d2 dcdc {d}cBB6 z8  | 
w:  kâr  *  *  *  *  *  e *  *  *  *  der    | 
B4 g2g3^3/4fe4f3ed2 d2e2 d2c2  | d4 e2d3cdc B^AB6 z8  | 
w:  Câ nı na  *  *  üf  |  tâ de gâ *  *  *  *  *  nın   | 
A_2/4BA2 B2c2 d2c2 e2d4{e}dc dcBA G2z2  | \
w:  nağ *  *  me  i  *  *  *  *  *  Saz  | 
A_7/8BAB AGAc _2/4BAAG GFG2 F2AG G6z2  | 
w:  kâr  *  *  *  *  *  *  *  *  *  e *  *  *  der    | 
|


